X: 041241
T: Danny Ab's #1
S: "Johnny O'Leary of Sliabh Luachra" (#176)
Z: B.Black
L: 1/8
M: 12/8
Q: 350
R: slide
K: D
F3 GFG A3 A2B|AFD AFD E2E EDE|
F3 GFG A2G A2d|cBA GFE D3 D2E :|
d2A FAd c2B G3|ABA A2A ABA F3|
d2A FAd c2B G2F|EFG ABc d3 d3 :|
